lib/healthicons/icons/outline/symbols/no.svg

<svg fill="none" height="48" viewBox="0 0 48 48" width="48" xmlns="http://www.w3.org/2000/svg"><g clip-rule="evenodd" fill="#333" fill-rule="evenodd"><path d="m24 42c9.9411 0 18-8.0589 18-18s-8.0589-18-18-18-18 8.0589-18 18 8.0589 18 18 18zm0 2c11.0457 0 20-8.9543 20-20s-8.9543-20-20-20-20 8.9543-20 20 8.9543 20 20 20z"/><path d="m16.2218 31.7782c-.3906-.3906-.3906-1.0237 0-1.4143l14.1421-14.1421c.3905-.3905 1.0237-.3905 1.4142 0s.3905 1.0237 0 1.4142l-14.1421 14.1422c-.3906.3905-1.0237.3905-1.4142 0z"/><path d="m16.2218 16.2218c.3906-.3905 1.0237-.3905 1.4143 0l14.1421 14.1422c.3905.3905.3905 1.0236 0 1.4142-.3905.3905-1.0237.3905-1.4142 0l-14.1422-14.1422c-.3905-.3905-.3905-1.0237 0-1.4142z"/></g></svg>

<svg width="48" height="48" viewBox="0 0 48 48" fill="none" xmlns="http://www.w3.org/2000/svg">
<path d="M16.2218 31.7782C15.8313 31.3877 15.8313 30.7545 16.2218 30.364L22.5858 24L16.2218 17.636C15.8313 17.2455 15.8313 16.6123 16.2218 16.2218C16.6124 15.8313 17.2455 15.8313 17.6361 16.2218L24 22.5858L30.364 16.2218C30.7545 15.8313 31.3877 15.8313 31.7782 16.2218C32.1687 16.6123 32.1687 17.2455 31.7782 17.636L25.4142 24L31.7782 30.364C32.1687 30.7545 32.1687 31.3877 31.7782 31.7782C31.3877 32.1687 30.7545 32.1687 30.364 31.7782L24 25.4142L17.6361 31.7782C17.2455 32.1687 16.6124 32.1687 16.2218 31.7782Z" fill="#333333"/>
<path fill-rule="evenodd" clip-rule="evenodd" d="M24 44C35.0457 44 44 35.0457 44 24C44 12.9543 35.0457 4 24 4C12.9543 4 4 12.9543 4 24C4 35.0457 12.9543 44 24 44ZM24 42C33.9411 42 42 33.9411 42 24C42 14.0589 33.9411 6 24 6C14.0589 6 6 14.0589 6 24C6 33.9411 14.0589 42 24 42Z" fill="#333333"/>
</svg>
